X: 811
M: C
L: 1/8
K: D
V: 1
d2)d2 d(FTED) | d2A=c TB2AB/^c/ |\
dABF AFdF | E/E/E FA TB2A :|
|: (g |\
f)dad Tfeeg | fdad Tf2e(g |\
f)dad eBdF | E/E/E FA TB2A :|
V: 2 clef=bass middle=d
z |\
d2d2 d2d2 | d2d2 d2d2 |\
d2d2 d2d2 | A2A2 D2D :|\
|: z |
d2d2 e2e2 | d2d2 d2d2 |\
d2d2 d2d2 | A2A2 D2D :|

